apps/docs/public/icons/discord.svg

<svg xmlns="http://www.w3.org/2000/svg" viewBox="0 0 16 16" fill="none" stroke="none" class="sbui-icon" width="100%" height="100%">
	<path fill-rule="evenodd" clip-rule="evenodd" d="M13.5447 3.01094C12.5249 2.54302 11.4313 2.19828 10.2879 2.00083C10.2671 1.99702 10.2463 2.00654 10.2356 2.02559C10.0949 2.27573 9.93921 2.60206 9.83011 2.85856C8.60028 2.67444 7.3768 2.67444 6.17222 2.85856C6.06311 2.59636 5.90166 2.27573 5.76038 2.02559C5.74966 2.00717 5.72887 1.99765 5.70803 2.00083C4.56527 2.19764 3.47171 2.54239 2.45129 3.01094C2.44246 3.01475 2.43488 3.0211 2.42986 3.02935C0.355594 6.12826 -0.212633 9.151 0.06612 12.1362C0.067381 12.1508 0.0755799 12.1648 0.0869319 12.1737C1.45547 13.1787 2.78114 13.7889 4.08219 14.1933C4.10301 14.1996 4.12507 14.192 4.13832 14.1749C4.44608 13.7546 4.72043 13.3114 4.95565 12.8454C4.96953 12.8181 4.95628 12.7857 4.92791 12.7749C4.49275 12.6099 4.0784 12.4086 3.67982 12.18C3.64829 12.1616 3.64577 12.1165 3.67477 12.095C3.75865 12.0321 3.84255 11.9667 3.92264 11.9007C3.93713 11.8886 3.95732 11.8861 3.97435 11.8937C6.59287 13.0892 9.42771 13.0892 12.0153 11.8937C12.0323 11.8854 12.0525 11.888 12.0677 11.9C12.1478 11.9661 12.2316 12.0321 12.3161 12.095C12.3451 12.1165 12.3433 12.1616 12.3117 12.18C11.9131 12.413 11.4988 12.6099 11.063 12.7743C11.0346 12.7851 11.022 12.8181 11.0359 12.8454C11.2762 13.3108 11.5505 13.7539 11.8526 14.1742C11.8652 14.192 11.8879 14.1996 11.9087 14.1933C13.2161 13.7889 14.5417 13.1787 15.9103 12.1737C15.9223 12.1648 15.9298 12.1515 15.9311 12.1369C16.2647 8.6856 15.3723 5.68765 13.5655 3.02998C13.5611 3.0211 13.5535 3.01475 13.5447 3.01094ZM5.34668 10.3185C4.55833 10.3185 3.90876 9.59478 3.90876 8.70593C3.90876 7.81707 4.54574 7.09331 5.34668 7.09331C6.15393 7.09331 6.79722 7.82342 6.7846 8.70593C6.7846 9.59478 6.14762 10.3185 5.34668 10.3185ZM10.6632 10.3185C9.87481 10.3185 9.22527 9.59478 9.22527 8.70593C9.22527 7.81707 9.86221 7.09331 10.6632 7.09331C11.4704 7.09331 12.1137 7.82342 12.1011 8.70593C12.1011 9.59478 11.4704 10.3185 10.6632 10.3185Z" fill="currentColor">
	</path>
</svg>

<svg xmlns="http://www.w3.org/2000/svg" fill="none" class="sbui-icon" viewBox="0 0 16 16"><path fill="currentColor" fill-rule="evenodd" d="M13.545 3.01A13.2 13.2 0 0 0 10.288 2a.05.05 0 0 0-.052.026c-.141.25-.297.576-.406.833a12.2 12.2 0 0 0-3.658 0 8 8 0 0 0-.412-.833A.05.05 0 0 0 5.708 2a13.2 13.2 0 0 0-3.257 1.01.05.05 0 0 0-.021.018C.356 6.13-.213 9.151.066 12.136q.003.024.02.038a13.3 13.3 0 0 0 3.996 2.02.05.05 0 0 0 .056-.02q.463-.63.818-1.329a.05.05 0 0 0-.028-.07 9 9 0 0 1-1.248-.595.05.05 0 0 1-.005-.085q.127-.095.248-.194a.05.05 0 0 1 .051-.007c2.619 1.195 5.454 1.195 8.041 0a.05.05 0 0 1 .053.006q.121.1.248.195a.05.05 0 0 1-.004.085q-.597.349-1.249.594a.05.05 0 0 0-.027.071c.24.466.515.909.817 1.33a.05.05 0 0 0 .056.018 13.2 13.2 0 0 0 4.001-2.02.05.05 0 0 0 .021-.036c.334-3.451-.559-6.45-2.365-9.107a.04.04 0 0 0-.021-.02M5.347 10.32c-.789 0-1.438-.724-1.438-1.613s.637-1.613 1.438-1.613c.807 0 1.45.73 1.438 1.613 0 .889-.637 1.613-1.438 1.613m5.316 0c-.788 0-1.438-.724-1.438-1.613s.637-1.613 1.438-1.613c.807 0 1.45.73 1.438 1.613 0 .889-.63 1.613-1.438 1.613" clip-rule="evenodd"/></svg>
